X:1
T:Brooklyn Lasses -- Reel
R:reel
B:Ryan's Mammoth Collection
Z:Contributed by Ray Davies,  ray:davies99.freeserve.co.uk
M:2/4
L:1/16
K:Edor
v.B.e.e(c d)(cd).B|(AF)(FD) FAAc|.B.e.e(c d)(cd).A|((3Bcd).A.c BE~E2|
{f}e^dec dcdB|.A2(FD) FAAc|.B.e.e(c d)(cd).A|((3Bcd).A.c BE~E2::
{f}e^def {a}gfge|.d.e.f(g a)(fd).f|e^def .g2((3gfe)|dBcA BE~E2|
{f}e^def {a}gfge|.d.e.f(g a)(fd).f|(gf)(fe) (ed)(dc)|((3Bcd).c.A BE~E2:|
